X:067 
T:Glen Cottage (1) (polka) 
B:CRE3.072 (TeachÃÂÃÂÃÂÃÂ­n an Ghleanna 1)
F:file ID: cre.3/067glen_c1
R:polka
Q:220
M:2/4
L:1/8
K:Em
BB/A/|GE ED|B,E EF|G>F ED|GA A/B/B/A/|
GE ED|B,E E2|BB/A/ GF|E2:|
|:A|Be ef|eB BA|Be df|e2 ef|
ga/g/ fg/f/|ed BA|BE E/F/G/A/|B2:|


%%%

